X: 3355
T: Below The Archway
R: reel
M: 4/4
K: Bminor
FB~B2 edcA|G2fe cAAB|EBBA Bcde|cAce afge|
~f2eg fBBd|cA~A2 cdec|dafd caec|1 dBBA B3A:|2 dBBA B3^g||
|:ad~d2 fgaf|~e3d efge|fBBd c2FA|GBfe cAAB|
EBBA Bcde|cAce afge|dafd caec|1 dBBA B3^g:|2 dBBA B3A||

